!!!OTL: Prelude No. 7 in E-flat major
**kern	**kern
*Icemba	*Icemba
*staff2	*staff1
*clefF4	*clefG2
*k[b-e-a-]	*k[b-e-a-]
*E-:	*E-:
*M9/8	*M9/8
*MM132	*MM132
=1-	=1-
*	*^
8r	4.b-/	4.g\
8e-\L	.	.
8d\J	.	.
8e-\L	4.r	4.r
8B-\	.	.
8G\J	.	.
8E-\	8r	8r
8r	8g/L	4g\
8r	8ee-/J	.
=2	=2	=2
8r	8ee-/	4.f\
8B-\L	4dd/	.
8An\J	.	.
8B-\L	4.r	4.r
8F\	.	.
8D\J	.	.
8BB-/	8r	4.r
8r	8f/L	.
8r	8g/J	.
=3	=3	=3
8F\	8a-/L	4.r
8r	8c/	.
8r	8e-/J	.
8B-\	8d/L	4.r
8r	8f/	.
8r	8b-/J	.
8BB-/	8B-/L	4.B-\
8r	8f/	.
8r	8a-/J	.
=4	=4	=4
*^	*	*
4.r	8r	8a-/	4.B-\ 4.e-\
.	8E-\L	4g/	.
.	8D\J	.	.
4.r	8E-\L	4.r	4.r
.	8BB-\	.	.
.	8GG\J	.	.
8r	8EE-\	4.r	4.r
8E-/L	8r	.	.
8D/J	8r	.	.
*	*	*v	*v
=5	=5	=5
8E-/L	4.r	4.r
8G/	.	.
8F/J	.	.
8r	8r	8G\L
8r	8r	8B-\
8EE-/	8EE-\	8A-\J
4E-/	4EE-\	8B-/L
.	.	8d-/
8D-/	8EE-\	8G/J
=6	=6	=6
4C/	4EE-\	8A-/L
.	.	8c/
8E-/	8r	8B-/J
4AA-/	8r	8c/L
.	8r	8e-/
8BB-/	8EE-\	8d-/J
4C/	4EE-\	8e-/L
.	.	8a-/
8AA-/	8EE-\	8c/J
=7	=7	=7
4F/	4E-\	8dn/L
.	.	8f/
8A-/	8r	8e-/J
4D/	4.r	8f/L
.	.	8a-/
8E-/	.	8g/J
4F/	8r	8a-\L
.	8r	8ff\
8BB-/ 8D/	8EE-\	8a-\J
=8	=8	=8
4BB-/ 4E-/	4EE-\	8g/L
.	.	8b-/
8r	8F\	8a-/J
4.r	4G\	8b-\L
.	.	8ee-\
.	8B-\	8dd\J
4.r	4G\	8ee-\L
.	.	8gg\
.	8D\	8ff\J
*v	*v	*
=9	=9
*	*^
4E-\	4.r	8gg\L
.	.	8ee-\
8G\	.	8dd\J
4C/	[2.ee-/	8r
.	.	8cc\L
8D\	.	8b-\J
16E-\LL	.	8cc\
16D\	.	.
16C\	.	8an\L
16D\J	.	.
8E-\J	.	8g\J
=10	=10	=10
8FF\L	4.cc/ 4.ee-/]	4.an\
8f\	.	.
8e-\J	.	.
8f\L	4.r	4.r
8c\	.	.
8An\J	.	.
8F\	8r	8r
8r	8a/L	4a\
8r	8ee-/J	.
=11	=11	=11
8B-\	8dd/L	4.r
8r	8b-/	.
8r	8f/J	.
8E-\	8g/L	4.r
8r	8e-/	.
8r	8d/J	.
8F\	8c/L	4.c\
8r	8b-/	.
8r	8an/J	.
=12	=12	=12
8r	4.b-/	4.d\
8B-\L	.	.
8An\J	.	.
8B-\L	4.r	4.r
8F\	.	.
8D\J	.	.
8BB-/	8r	4.r
8r	8B-/L	.
8r	8An/J	.
*	*v	*v
=13	=13
*^	*
8r	4.r	8B-/L
8BB-/L	.	8d/
8AAn/J	.	8c/J
8BB-/L	8r	8d/L
8D/	8r	8f/
8C/J	8BB-\	8e-/J
8D/L	4BB-\	8f/L
8F/	.	8a-/
8A-/J	8BB-\	8d/J
=14	=14	=14
8G/L	4BB-\	8e-/L
8B-/	.	8g/
8A-/J	8r	8f/J
8B-/L	8r	8g/L
8G/	8r	8b-/
8F/J	8BB-\	8a-/J
8G/L	8BB-\	8b-\L
8B-/	8r	8ee-\
8d/J	8B-\	8g\J
=15	=15	=15
8c/L	4B-\	8an\L
8e-/	.	8cc\
8d/J	8r	8b-\J
8e-/L	4.r	8cc\L
8c/	.	8ee-\
8B-/J	.	8dd\J
8c/L	8r	8ee-\L
8B-/	8r	8ccc\
8An/J	8BB-\ 8F\	8ee-\J
*v	*v	*
=16	=16
*	*^
8BB-\ 8F\	8dd/L	8B-\L
8r	8b-/	8d\
8r	8an/J	8c\J
4.r	8b-/L	8d\L
.	8dd/	8f\
.	8cc/J	8e-\J
4.r	8dd/L	8f\L
.	8ff/	8a-\
.	8ee-/J	8g\J
=17	=17	=17
8r	4.a-\ 4.dd\	4.ff/
8B-\L	.	.
8An\J	.	.
8B-\L	4.r	4.r
8F\	.	.
8D\J	.	.
8BB-/	8r	8r
8r	8e-\L	8g/L
8r	8d\J	8f/J
=18	=18	=18
8r	4.g/	4.e-\
8B-\L	.	.
8A-\J	.	.
8B-\L	4.r	4.r
8G\	.	.
8E-\J	.	.
8BB-/	8r	8r
8r	8dd/L	8f\L
8r	8ee-/J	8g\J
=19	=19	=19
8r	4.ff/	4.a-\
8BB-/L	.	.
8AAn/J	.	.
8BB-/L	8r	8r
8D/	8r	8r
8C/J	8ff/	8a-\
8D\L	4bn/	4a-\
8F\	.	.
8E-\J	8cc/	8f\ 8a-\
=20	=20	=20
8F\L	4.bn/	4.d\ 4.a-\
8A-\	.	.
8G\J	.	.
8A-\	8r	2.r
8r	8Bn/L	.
8r	8d/J	.
8BBn/	8f/L	.
8r	8e-/	.
8r	8d/J	.
*	*v	*v
=21	=21
8C/	8e-/L
8r	8g/
8r	8cc/J
8c\	8ee-\L
8r	8dd\
8r	8cc\J
8B-\	8r
8r	8e-/L
8r	8cc/J
=22	=22
8A-\	8f/L
8r	8a-/
8r	8cc/J
8AA-/	8ee-\L
8r	8dd\
8r	8cc\J
8E-\	8r
8r	8g/L
8r	8cc/J
=23	=23
8F\	8a-\L
8r	8bn\
8r	8cc\J
8F#\	8ee-\L
8r	8dd\
8r	8cc\J
8G\	8r
8r	8fn/L
8r	8bn/J
=24	=24
[4.C/	8cc/L
.	8g/
.	8e-/J
8C\L]	8c/
8E-\	8r
8G\J	8r
8B-\L	4.r
8An\	.
8G\J	.
=25	=25
8An\	8r
8r	8ee-\L
8r	8dd\J
4.r	8ee-\L
.	8cc\
.	8an\J
8r	8f/
8c\L	8r
8F\J	8r
=26	=26
*	*^
8B-\	8r	4.r
8r	8f/L	.
8r	8e-/J	.
4.r	(8f/L	4.f\
.	8b-/	.
.	8cc/J	.
8r	8dd-/	8f\)
8A-\L	8r	8r
8F\J	8r	8r
*	*v	*v
=27	=27
8G\	8r
8r	8dd-\L
8r	8cc\J
4.r	8dd-\L
.	8b-\
.	8g\J
8r	8e-/
8B-\L	8r
8E-\J	8r
=28	=28
*	*^
8A-\	8r	4.r
8r	8e-/L	.
8r	8d-/J	.
4.r	(8e-/L	4.e-\
.	8a-/	.
.	8b-/J	.
8r	8cc/	8e-\)
8G\L	8r	8r
8E-\J	8r	8r
*	*v	*v
=29	=29
8F\	8r
8r	8dn/L
8r	8a-/J
4.r	8cc\L
.	8b-\
.	8a-\J
8G\	8r
8r	8d-/L
8r	8b-/J
=30	=30
8En\	8r
8r	8c/L
8r	8g/J
4.r	8b-/L
.	8a-/
.	8g/J
8F\	8r
8r	8c/L
8r	8a-/J
=31	=31
8D\	8r
8r	8B-/L
8r	8a-/J
8E-\	8r
8r	8a-/L
8r	8g/J
8AAn/	8r
8r	8cc/L
8r	8e-/J
=32	=32
8BB-/	8r
8r	8d/L
8r	8c/J
8r	8d/L
8D/L	8B-/
8C/J	8An/J
8D\L	8B-/L
8F\	8d/
8A-\J	8f/J
=33	=33
8BB-/L	8a-/L
8D/	8f/
8C/J	8e-/J
8D\L	8f/L
8F\	8d/
8E-\J	8c/J
8F\L	8d/L
8D\	8f/
8BB-\J	8a-/J
=34	=34
8r	8cc/L
8r	8e-/
8F\	8d/J
4GG/	8b-/L
.	8d-/
8E-\	8c/J
4FF/	8a-/L
.	8c-/
8Dn\	8B-/J
=35	=35
8EE-/	8r
8r	8g/L
8r	8f/J
8r	8g/L
8G\L	8e-/
8F\J	8d/J
8G\L	8e-/L
8B-\	8g/
8d-\J	8b-/J
=36	=36
8E-\L	8dd-\L
8G\	8b-\
8F\J	8a-\J
8G\L	8b-/L
8B-\	8g/
8A-\J	8f/J
8B-\L	8g\L
8G\	8b-\
8E-\J	8dd-\J
=37	=37
8r	8ff\L
8r	8a-\
8B-\	8g\J
4C/	8ee-\L
.	8g-\
8A-\	8f\J
4BB-/	8dd-/L
.	8f-/
8Gn\	8e-/J
=38	=38
4AA-/	8r
.	8cc\L
8r	8b-\J
8r	8cc/L
8c\L	8a-/
8B-\J	8g/J
8c\	8a-\L
8r	8cc\
8r	8ee-\J
=39	=39
8r	8gg\L
8r	8b-\
8C/	8an\J
4d\	8ff\L
.	8a-\
8BB-/	8g\J
4c\	8ee-\L
.	8g-\
8AAn/	8f\J
=40	=40
4BB-/	8r
.	8dd\L
8r	8cc\J
8r	8dd\L
8d\L	8b-\
8c\J	8an\J
8d\	8b-\L
8r	8dd\
8r	8ff\J
=41	=41
8r	8aa-\L
8r	8cc\
8D\	8bn\J
4e-\	8gg\L
.	8b-\
8C/	8an\J
4d\	8ff\L
.	8a-\
8BBn/	8g\J
=42	=42
4C/	8r
.	8ee-\L
8r	8dd\J
8r	8ee-\L
8e-\L	8cc\
8d\J	8bn\J
8e-\	8cc\L
8r	8ee-\
8r	8gg\J
=43	=43
*	*^
4.r	4ccc/	8r
.	.	8a-\L
.	8bbn/	8g\J
4.r	8ccc/L	8a-\L
.	8gg/	8e-\
.	8aa-/J	8c\J
4.r	8r	8g\L
.	8ff#/L	8d\
.	8gg/J	8B-\J
*	*v	*v
=44	=44
8f#/L	4ccc/
8c/	.
8An/J	8ff#/
8e-\L	8gg\L
8B-\	8dd\
8G\J	8ee-\J
8d\L	8r
8A\	8cc#\L
8F#\J	8dd\J
=45	=45
8G\	8bb-\L
8r	8gg\
8r	8dd\J
8C/	8ee-\L
8r	8gg\
8r	8ccc\J
8C#/	8bb-\L
8r	8aan\
8r	8gg\J
=46	=46
8D\	8ff#\L
8r	8aan\
8r	8dd\J
8r	8ee-\L
8r	8dd\
8DD/	8cc\J
4EEn/	8b-\L
.	8cc\
8FF#/	8an\J
=47	=47
8GG/	8b-\L
8r	8dd\
8r	8gg\J
8G\	8bb-\L
8r	8aan\
8r	8gg\J
8F\	8r
8r	8b-\L
8r	8gg\J
=48	=48
8E-\	8cc\L
8r	8ee-\
8r	8gg\J
8EE-/	8bb-\L
8r	8aan\
8r	8gg\J
8BB-/	8r
8r	8dd\L
8r	8gg\J
=49	=49
8C/	8ee-\L
8r	8ff#\
8r	8gg\J
8C#/	8b-/L
8r	8an/
8r	8g/J
8D\	8r
8r	8cn/L
8r	8f#/J
=50	=50
[4.GG/	8g\L
.	8b-\
.	8dd\J
8GG/L]	8gg\
8BB-/	8r
8D/J	8r
8F\L	[4.b-\
8En\	.
8D\J	.
=51	=51
8En\	8b-\L]
8r	8dd-\
8r	8cc\J
4.r	8dd-\L
.	8b-\
.	8g\J
8r	4en/
8G\L	.
8C\J	[8b-\
=52	=52
*	*^
4F\	4.r	8b-/L]
.	.	8a-/
8r	.	8g/J
4.r	(8a-/L	4.a-\
.	8cc/	.
.	[8ff/J	.
8r	4aa-/	4a-\) 4ff\]
8C\L	.	.
8E-\J	8r	8r
*	*v	*v
=53	=53
8D\	8r
8r	8aa-\L
8r	8gg\J
4.r	8aa-\L
.	8ff\
.	8dd\J
8r	4b-\
8d\L	.
8B-\J	[8aa-\
=54	=54
4e-\	8aa-\L]
.	8gg\
8r	8ff\J
4.r	8gg\L
.	8ee-\
.	8b-\J
8r	8g\L
8G\L	8b-\
8E-\J	[8dd-\J
=55	=55
8A-\L	8dd-\L]
8E-\	8cc\
8D-\J	8b-\J
8C/L	8a-/L
8BB-/	8g/
8AA-/J	[8f/J
8GG/L	8f/L]
8C/	8e-/
8BB-/J	[8g-/J
=56	=56
*^	*
8AAn/L	4.r	8g-/L]
16BB-/L	.	8f/
16AA/	.	.
16GGn/	.	8e-/J
16AA/JJ	.	.
8BB-/	4.r	8d/L
8r	.	8c/
8r	.	8B-/J
8A-/L	4.r	4.r
8G/	.	.
8F/J	.	.
=57	=57	=57
8G/	8BB-\	8r
8r	8r	8e-/L
8r	8r	8d/J
4.r	4.r	8e-/L
.	.	8B-/
.	.	8A-/J
4.r	8G\L	4.r
.	8F\	.
.	8E-\J	.
=58	=58	=58
8D/	8BB-\	8r
8r	8r	8f/L
8r	8r	8e-/J
4.r	4.r	8f/L
.	.	8d/
.	.	8B-/J
4.r	8A-\L	4.r
.	8G\	.
.	8F\J	.
=59	=59	=59
8E-/	8BB-\	8r
8r	8r	8g/L
8r	8r	8f/J
4.r	4.r	8g/L
.	.	8e-/
.	.	8c/J
4.r	8B-\L	4.r
.	8A-\	.
.	8G\J	.
=60	=60	=60
8D/ 8F/	8BB-\	8r
8r	8r	8a-/L
8r	8r	8g/J
4.r	4.r	8a-/L
.	.	8f/
.	.	8d/J
4.r	8c\L	4.r
.	8B-\	.
.	8A-\J	.
*v	*v	*
=61	=61
*	*^
8G\L	4.b-/	4.e-\ 4.g\
8B-\	.	.
8A-\J	.	.
8B-\L	4.r	4.r
8G\	.	.
8E-\J	.	.
8BB-/	8r	8r
8r	8g/L	4g\
8r	8ee-/J	.
=62	=62	=62
8r	8ee-/	4.f\
8B-\L	4dd/	.
8An\J	.	.
8B-\L	4.r	4.r
8F\	.	.
8D\J	.	.
8BB-/	8r	4.r
8r	8f/L	.
8r	8g/J	.
*	*v	*v
=63	=63
8r	8a-/L
8r	8c/
8G\	8e-/J
4F\	8d/L
.	8f/
8E-\	8b-/J
4D\	8B-/L
.	8f/
8BB-/	8a-/J
=64	=64
4EE-/	8g/L
.	8B-/
8F\	8d-/J
4E-\	8c/L
.	8e-/
8D-\	8a-/J
4C/	8A-/L
.	8e-/
8AA-/	8g/J
=65	=65
4DD/	8f/L
.	8A-/
8E-\	8c/J
4D\	8B-/L
.	8d/
8C/	8g/J
4BB-/	8G/L
.	8d/
8GG/	8f/J
=66	=66
4CC/	8e-/L
.	8G/
8D\	8B-/J
4C/	8A-/L
.	8c/
8BB-/	8f/J
4AA-/	8F/L
.	8c/
8GG/	8e-/J
=67	=67
*	*^
4.AA-/	4.d/	4.F\ 4.B-\
8r	8r	8r
8r	8r	8r
8D\	8aa-/	8b-\ 8ff\
8E-\L	4gg/	4b-\ 4ee-\
16F\L	.	.
16G\	.	.
16A-\	8r	8r
16B-\JJ	.	.
=68	=68	=68
16c\LL	8r	8r
16d\J	.	.
8e-\	8r	8r
8A-\J	8ff/	8a-\ 8cc\
4.B-\	4.ee-/	4.g\ [4.b-\
4.BB-/	4dd/	4.f\ 4.b-\]
.	8ee-/	.
=69	=69	=69
4.E-\	8ee-/L	8g\
.	8b-/	8r
.	8a-/J	8r
4.r	8b-/L	2.r
.	8g/	.
.	8f/J	.
4.r	8g/L	.
.	8e-/	.
.	8d/J	.
*	*v	*v
=70	=70
*^	*
8e-/L	4.E-\	4.r
8B-/	.	.
8A-/J	.	.
8B-/L	4.r	4.r
8G/	.	.
8F/J	.	.
8G/L	4.r	4.r
8E-/	.	.
8D/J	.	.
*v	*v	*
=71	=71
4.E-\	4.r
4.EE-/	4.r
4.r;	4.r;
==	==
*-	*-
!!!ENC: Craig Stuart Sapp
!!!END: 2008/01/28
